brandFactory_export/1.Light/Cancelar_1Light.svg

<?xml version="1.0" encoding="UTF-8"?>
<svg width="24px" height="24px" viewBox="0 0 24 24" version="1.1" xmlns="http://www.w3.org/2000/svg" xmlns:xlink="http://www.w3.org/1999/xlink">
    <title>1.Light/Cancelar_1Light</title>
    <g id="Symbols" stroke="none" stroke-width="1" fill="none" fill-rule="evenodd">
        <g id="1.Light/Cancelar_1Light" fill="#5CB615" fill-rule="nonzero">
            <path d="M16.5815126,7.03865546 C16.7731092,7.2302521 16.7731092,7.54285714 16.5815126,7.73445378 L12.5008403,11.8151261 L16.5815126,15.8991597 C16.7697479,16.0941176 16.7663866,16.4067227 16.5680672,16.594958 C16.3764706,16.7798319 16.0739496,16.7798319 15.8857143,16.594958 L11.805042,12.5109244 L7.73445378,16.5815126 C7.54285714,16.7731092 7.2302521,16.7731092 7.03865546,16.5815126 C6.84705882,16.389916 6.84705882,16.0806723 7.03865546,15.8857143 L11.1092437,11.8151261 L7.03865546,7.74789916 C6.84705882,7.55630252 6.84705882,7.24705882 7.03865546,7.05210084 C7.2302521,6.8605042 7.5394958,6.8605042 7.73445378,7.05210084 L11.805042,11.1226891 L15.8890756,7.03865546 C16.0806723,6.84705882 16.389916,6.84705882 16.5815126,7.03865546 Z M11.8084034,22.6386555 C18.994958,22.6386555 22.6386555,18.9983193 22.6386555,11.8151261 C22.6386555,4.62857143 18.994958,0.98487395 11.8084034,0.98487395 C4.62521008,0.98487395 0.98487395,4.62857143 0.98487395,11.8151261 C0.98487395,18.9983193 4.62521008,22.6386555 11.8084034,22.6386555 Z M11.8084034,0 C19.2705882,0 23.6235294,3.76806723 23.6235294,11.8151261 C23.6235294,19.8621849 19.2705882,23.6235294 11.8084034,23.6235294 C4.34621849,23.6235294 0,19.8621849 0,11.8151261 C0,3.76806723 4.34621849,0 11.8084034,0 Z" id="Cancelar_1Light"></path>
        </g>
    </g>
</svg>

<svg width="24" height="24" viewBox="0 0 24 24" xmlns="http://www.w3.org/2000/svg"><path d="M16.582 7.039a.493.493 0 010 .695L12.5 11.815l4.08 4.084a.49.49 0 01-.013.696.49.49 0 01-.682 0l-4.081-4.084-4.07 4.07a.493.493 0 01-.696-.695l4.07-4.07-4.07-4.068a.493.493 0 01.695-.696l4.071 4.07 4.084-4.083a.489.489 0 01.693 0zm-4.774 15.6c7.187 0 10.83-3.64 10.83-10.824 0-7.186-3.643-10.83-10.83-10.83C4.625.985.985 4.629.985 11.815c0 7.183 3.64 10.824 10.823 10.824zm0-22.639c7.463 0 11.816 3.768 11.816 11.815S19.27 23.624 11.808 23.624C4.346 23.624 0 19.862 0 11.815 0 3.768 4.346 0 11.808 0z" fill="#5CB615" fill-rule="nonzero"/></svg>
